X: 37324
T: Skyeman's, The
R: jig
M: 6/8
K: Amixolydian
|:e|AAA e2d|efg e2d|B2G GGG|BdG Bee|
AAA e2d|efg e2d|e2d g2G|BAA A2:|
|:e|aga g2e|edg e2d|B2G GGG|BdG Bee|
[1aga g2e|edg e2d|e2d g2G|BAA A2:|
[2AAA e2d|efg e2d|e2d g2G|BAA A2||
|:e|AAA eAe|AaA eAd|B2G GGG|BdG Bee|
AAA eAe|AgA eAd|e2d g2G|BAA A2:|
|:e|aAA egg|fdd e2f|gAA egg|e2A BGG|
[1aAA egg|fdd e2d|e2d g2G|BAA A2:|
[2AAA eAe|AgA eAd|e2d g2G|BAA A2||

